report_00007_2020-12-11T15:55:29.892Z/meta/score/samples/pages+cached/raw/sorted.svg

<svg width="640" height="490" xmlns="http://www.w3.org/2000/svg" xmlns:xlink="http://www.w3.org/1999/xlink"><path fill="#fff" d="M0 0h640v490H0z"/><defs><path id="d" stroke-width=".222" stroke="currentColor" d="M-1-1h2v2h-2z"/><path id="b" stroke-width=".222" stroke="currentColor" d="M0-1.33l-1.33 2h2.66z"/><path id="f" stroke-width=".222" stroke="currentColor" d="M0 1.33L1.265.411.782-1.067l-1.564-.009-.483 1.487z"/><use xlink:href="#b" id="c" stroke="currentColor" transform="rotate(180)"/><use xlink:href="#d" id="e" stroke="currentColor" transform="rotate(45)"/><circle id="a" stroke-width=".222" stroke="currentColor" cx="0" cy="0" r="1"/></defs><g fill="none" color="#000" stroke="currentColor"><path stroke="#000" d="M62.2 435.3h9m543.8 0h-9"/><text transform="translate(53.9 439.2)" stroke="none" fill="#000" font-family="Arial" font-size="12" text-anchor="end"><tspan>0.49</tspan></text></g><g fill="none" color="#000" stroke="currentColor"><path stroke="#000" d="M62.2 381.2h9m543.8 0h-9"/><text transform="translate(53.9 385.1)" stroke="none" fill="#000" font-family="Arial" font-size="12" text-anchor="end"><tspan>0.5</tspan></text></g><g fill="none" color="#000" stroke="currentColor"><path stroke="#000" d="M62.2 327.2h9m543.8 0h-9"/><text transform="translate(53.9 331.1)" stroke="none" fill="#000" font-family="Arial" font-size="12" text-anchor="end"><tspan>0.51</tspan></text></g><g fill="none" color="#000" stroke="currentColor"><path stroke="#000" d="M62.2 273.2h9m543.8 0h-9"/><text transform="translate(53.9 277.1)" stroke="none" fill="#000" font-family="Arial" font-size="12" text-anchor="end"><tspan>0.52</tspan></text></g><g fill="none" color="#000" stroke="currentColor"><path stroke="#000" d="M62.2 219.1h9m543.8 0h-9"/><text transform="translate(53.9 223)" stroke="none" fill="#000" font-family="Arial" font-size="12" text-anchor="end"><tspan>0.53</tspan></text></g><g fill="none" color="#000" stroke="currentColor"><path stroke="#000" d="M62.2 165.1h9m543.8 0h-9"/><text transform="translate(53.9 169)" stroke="none" fill="#000" font-family="Arial" font-size="12" text-anchor="end"><tspan>0.54</tspan></text></g><g fill="none" color="#000" stroke="currentColor"><path stroke="#000" d="M62.2 111h9m543.8 0h-9"/><text transform="translate(53.9 114.9)" stroke="none" fill="#000" font-family="Arial" font-size="12" text-anchor="end"><tspan>0.55</tspan></text></g><g fill="none" color="#000" stroke="currentColor"><path stroke="#000" d="M62.2 57h9M615 57h-9"/><text transform="translate(53.9 60.9)" stroke="none" fill="#000" font-family="Arial" font-size="12" text-anchor="end"><tspan>0.56</tspan></text></g><g fill="none" color="#000" stroke="currentColor"><path stroke="#000" d="M62.2 436v-9m0-408.9v9"/><text transform="translate(62.2 457.9)" stroke="none" fill="#000" font-family="Arial" font-size="12" text-anchor="middle"><tspan>0</tspan></text></g><g fill="none" color="#000" stroke="currentColor"><path stroke="#000" d="M118 436v-9m0-408.9v9"/><text transform="translate(118 457.9)" stroke="none" fill="#000" font-family="Arial" font-size="12" text-anchor="middle"><tspan>10</tspan></text></g><g fill="none" color="#000" stroke="currentColor"><path stroke="#000" d="M173.9 436v-9m0-408.9v9"/><text transform="translate(173.9 457.9)" stroke="none" fill="#000" font-family="Arial" font-size="12" text-anchor="middle"><tspan>20</tspan></text></g><g fill="none" color="#000" stroke="currentColor"><path stroke="#000" d="M229.7 436v-9m0-408.9v9"/><text transform="translate(229.7 457.9)" stroke="none" fill="#000" font-family="Arial" font-size="12" text-anchor="middle"><tspan>30</tspan></text></g><g fill="none" color="#000" stroke="currentColor"><path stroke="#000" d="M285.6 436v-9m0-408.9v9"/><text transform="translate(285.6 457.9)" stroke="none" fill="#000" font-family="Arial" font-size="12" text-anchor="middle"><tspan>40</tspan></text></g><g fill="none" color="#000" stroke="currentColor"><path stroke="#000" d="M341.4 436v-9m0-408.9v9"/><text transform="translate(341.4 457.9)" stroke="none" fill="#000" font-family="Arial" font-size="12" text-anchor="middle"><tspan>50</tspan></text></g><g fill="none" color="#000" stroke="currentColor"><path stroke="#000" d="M397.2 436v-9m0-408.9v9"/><text transform="translate(397.2 457.9)" stroke="none" fill="#000" font-family="Arial" font-size="12" text-anchor="middle"><tspan>60</tspan></text></g><g fill="none" color="#000" stroke="currentColor"><path stroke="#000" d="M453.1 436v-9m0-408.9v9"/><text transform="translate(453.1 457.9)" stroke="none" fill="#000" font-family="Arial" font-size="12" text-anchor="middle"><tspan>70</tspan></text></g><g fill="none" color="#000" stroke="currentColor"><path stroke="#000" d="M508.9 436v-9m0-408.9v9"/><text transform="translate(508.9 457.9)" stroke="none" fill="#000" font-family="Arial" font-size="12" text-anchor="middle"><tspan>80</tspan></text></g><g fill="none" color="#000" stroke="currentColor"><path stroke="#000" d="M564.7 436v-9m0-408.9v9"/><text transform="translate(564.7 457.9)" stroke="none" fill="#000" font-family="Arial" font-size="12" text-anchor="middle"><tspan>90</tspan></text></g><path stroke="#000" d="M62.2 18.1V436H615V18.1H62.2z" fill="none" color="#000"/><text transform="translate(321.6 475.9)" stroke="none" fill="#000" font-family="Arial" font-size="12" text-anchor="end" color="#000"><tspan>raw</tspan></text><path stroke="#9400D3" d="M329.9 472h42.2M62.2 428l5.6-26.2 5.6-16.1L79 372l5.5-3.5 5.6-5.3 5.6-12.2 5.6-12.3 5.6-3 5.6-2.8 5.5-2.4 5.6-.7 5.6-1.8 5.6-.9 5.6-10.6 5.6-21.6 5.5-4.8 5.6-.5 5.6-1.1 5.6-.1 5.6-6.2 5.6-.4 5.5-1.2 5.6-1.1 5.6-13.6 5.6-13.7 5.6-3.4 5.6-1.3 5.5-4.6 5.6-1.8 5.6-.8 5.6-.3 5.6-1.3 5.6-1.3 5.6-.5 5.5-.6 5.6-3.5 5.6-2.2 5.6-3.8 5.6-.5 5.6-.7h5.5l5.6-2.1 5.6-2.2 5.6-4.7 5.6-2.1 5.6-5.1 5.5-4.8 5.6-3.3 5.6-.3 5.6-4.1 5.6-.2 5.6-5.5 5.5-.6 5.6-2.1 5.6-4.4h5.6l5.6-1.2 5.6-2.8 5.5-3.2 5.6-2.6 5.6-2.4 5.6-5.3 5.6-1.5 5.6-.7h5.5l5.6-.1h5.6l5.6-4.9 5.6-.9 5.6-3.6 5.6-.4 5.5-4.7 5.6-7.9 5.6-1 5.6-2.1 5.6-3.1 5.6-2 5.5-.7 5.6-1.1 5.6-1.2 5.6-1.4 5.6-.2 5.6-6.1 5.5-1.7 5.6-.1 5.6-5.5 5.6-.9 5.6-1.3 5.6-.5 5.5-12.1 5.6-2.9 5.6-.2 5.6-.4 5.6-3.4h5.6l5.5-2.2 5.6-3.4 5.6-1.6 5.6-60.7" fill="none" color="#000"/><g fill="none" color="#000" stroke="currentColor"><path stroke="#000" d="M62.2 18.1V436H615V18.1H62.2z"/></g></svg>

<?xml version="1.0" encoding="utf-8"  standalone="no"?>
<svg 
 width="640" height="490"
 viewBox="0 0 640 490"
 xmlns="http://www.w3.org/2000/svg"
 xmlns:xlink="http://www.w3.org/1999/xlink"
>

<title>Gnuplot</title>
<desc>Produced by GNUPLOT 5.4 patchlevel 0 </desc>

<g id="gnuplot_canvas">

<rect x="0" y="0" width="640" height="490" fill="#ffffff"/>
<defs>

	<circle id='gpDot' r='0.5' stroke-width='0.5' stroke='currentColor'/>
	<path id='gpPt0' stroke-width='0.222' stroke='currentColor' d='M-1,0 h2 M0,-1 v2'/>
	<path id='gpPt1' stroke-width='0.222' stroke='currentColor' d='M-1,-1 L1,1 M1,-1 L-1,1'/>
	<path id='gpPt2' stroke-width='0.222' stroke='currentColor' d='M-1,0 L1,0 M0,-1 L0,1 M-1,-1 L1,1 M-1,1 L1,-1'/>
	<rect id='gpPt3' stroke-width='0.222' stroke='currentColor' x='-1' y='-1' width='2' height='2'/>
	<rect id='gpPt4' stroke-width='0.222' stroke='currentColor' fill='currentColor' x='-1' y='-1' width='2' height='2'/>
	<circle id='gpPt5' stroke-width='0.222' stroke='currentColor' cx='0' cy='0' r='1'/>
	<use xlink:href='#gpPt5' id='gpPt6' fill='currentColor' stroke='none'/>
	<path id='gpPt7' stroke-width='0.222' stroke='currentColor' d='M0,-1.33 L-1.33,0.67 L1.33,0.67 z'/>
	<use xlink:href='#gpPt7' id='gpPt8' fill='currentColor' stroke='none'/>
	<use xlink:href='#gpPt7' id='gpPt9' stroke='currentColor' transform='rotate(180)'/>
	<use xlink:href='#gpPt9' id='gpPt10' fill='currentColor' stroke='none'/>
	<use xlink:href='#gpPt3' id='gpPt11' stroke='currentColor' transform='rotate(45)'/>
	<use xlink:href='#gpPt11' id='gpPt12' fill='currentColor' stroke='none'/>
	<path id='gpPt13' stroke-width='0.222' stroke='currentColor' d='M0,1.330 L1.265,0.411 L0.782,-1.067 L-0.782,-1.076 L-1.265,0.411 z'/>
	<use xlink:href='#gpPt13' id='gpPt14' fill='currentColor' stroke='none'/>
	<filter id='textbox' filterUnits='objectBoundingBox' x='0' y='0' height='1' width='1'>
	  <feFlood flood-color='#FFFFFF' flood-opacity='1' result='bgnd'/>
	  <feComposite in='SourceGraphic' in2='bgnd' operator='atop'/>
	</filter>
	<filter id='greybox' filterUnits='objectBoundingBox' x='0' y='0' height='1' width='1'>
	  <feFlood flood-color='lightgrey' flood-opacity='1' result='grey'/>
	  <feComposite in='SourceGraphic' in2='grey' operator='atop'/>
	</filter>
</defs>
<g fill="none" color="#FFFFFF" stroke="currentColor" stroke-width="1.00" stroke-linecap="butt" stroke-linejoin="miter">
</g>
<g fill="none" color="black" stroke="currentColor" stroke-width="1.00" stroke-linecap="butt" stroke-linejoin="miter">
	<path stroke='black'  d='M62.2,435.3 L71.2,435.3 M615.0,435.3 L606.0,435.3  '/>	<g transform="translate(53.9,439.2)" stroke="none" fill="black" font-family="Arial" font-size="12.00"  text-anchor="end">
		<text><tspan font-family="Arial" > 0.49</tspan></text>
	</g>
</g>
<g fill="none" color="black" stroke="currentColor" stroke-width="1.00" stroke-linecap="butt" stroke-linejoin="miter">
	<path stroke='black'  d='M62.2,381.2 L71.2,381.2 M615.0,381.2 L606.0,381.2  '/>	<g transform="translate(53.9,385.1)" stroke="none" fill="black" font-family="Arial" font-size="12.00"  text-anchor="end">
		<text><tspan font-family="Arial" > 0.5</tspan></text>
	</g>
</g>
<g fill="none" color="black" stroke="currentColor" stroke-width="1.00" stroke-linecap="butt" stroke-linejoin="miter">
	<path stroke='black'  d='M62.2,327.2 L71.2,327.2 M615.0,327.2 L606.0,327.2  '/>	<g transform="translate(53.9,331.1)" stroke="none" fill="black" font-family="Arial" font-size="12.00"  text-anchor="end">
		<text><tspan font-family="Arial" > 0.51</tspan></text>
	</g>
</g>
<g fill="none" color="black" stroke="currentColor" stroke-width="1.00" stroke-linecap="butt" stroke-linejoin="miter">
	<path stroke='black'  d='M62.2,273.2 L71.2,273.2 M615.0,273.2 L606.0,273.2  '/>	<g transform="translate(53.9,277.1)" stroke="none" fill="black" font-family="Arial" font-size="12.00"  text-anchor="end">
		<text><tspan font-family="Arial" > 0.52</tspan></text>
	</g>
</g>
<g fill="none" color="black" stroke="currentColor" stroke-width="1.00" stroke-linecap="butt" stroke-linejoin="miter">
	<path stroke='black'  d='M62.2,219.1 L71.2,219.1 M615.0,219.1 L606.0,219.1  '/>	<g transform="translate(53.9,223.0)" stroke="none" fill="black" font-family="Arial" font-size="12.00"  text-anchor="end">
		<text><tspan font-family="Arial" > 0.53</tspan></text>
	</g>
</g>
<g fill="none" color="black" stroke="currentColor" stroke-width="1.00" stroke-linecap="butt" stroke-linejoin="miter">
	<path stroke='black'  d='M62.2,165.1 L71.2,165.1 M615.0,165.1 L606.0,165.1  '/>	<g transform="translate(53.9,169.0)" stroke="none" fill="black" font-family="Arial" font-size="12.00"  text-anchor="end">
		<text><tspan font-family="Arial" > 0.54</tspan></text>
	</g>
</g>
<g fill="none" color="black" stroke="currentColor" stroke-width="1.00" stroke-linecap="butt" stroke-linejoin="miter">
	<path stroke='black'  d='M62.2,111.0 L71.2,111.0 M615.0,111.0 L606.0,111.0  '/>	<g transform="translate(53.9,114.9)" stroke="none" fill="black" font-family="Arial" font-size="12.00"  text-anchor="end">
		<text><tspan font-family="Arial" > 0.55</tspan></text>
	</g>
</g>
<g fill="none" color="black" stroke="currentColor" stroke-width="1.00" stroke-linecap="butt" stroke-linejoin="miter">
	<path stroke='black'  d='M62.2,57.0 L71.2,57.0 M615.0,57.0 L606.0,57.0  '/>	<g transform="translate(53.9,60.9)" stroke="none" fill="black" font-family="Arial" font-size="12.00"  text-anchor="end">
		<text><tspan font-family="Arial" > 0.56</tspan></text>
	</g>
</g>
<g fill="none" color="black" stroke="currentColor" stroke-width="1.00" stroke-linecap="butt" stroke-linejoin="miter">
	<path stroke='black'  d='M62.2,436.0 L62.2,427.0 M62.2,18.1 L62.2,27.1  '/>	<g transform="translate(62.2,457.9)" stroke="none" fill="black" font-family="Arial" font-size="12.00"  text-anchor="middle">
		<text><tspan font-family="Arial" > 0</tspan></text>
	</g>
</g>
<g fill="none" color="black" stroke="currentColor" stroke-width="1.00" stroke-linecap="butt" stroke-linejoin="miter">
	<path stroke='black'  d='M118.0,436.0 L118.0,427.0 M118.0,18.1 L118.0,27.1  '/>	<g transform="translate(118.0,457.9)" stroke="none" fill="black" font-family="Arial" font-size="12.00"  text-anchor="middle">
		<text><tspan font-family="Arial" > 10</tspan></text>
	</g>
</g>
<g fill="none" color="black" stroke="currentColor" stroke-width="1.00" stroke-linecap="butt" stroke-linejoin="miter">
	<path stroke='black'  d='M173.9,436.0 L173.9,427.0 M173.9,18.1 L173.9,27.1  '/>	<g transform="translate(173.9,457.9)" stroke="none" fill="black" font-family="Arial" font-size="12.00"  text-anchor="middle">
		<text><tspan font-family="Arial" > 20</tspan></text>
	</g>
</g>
<g fill="none" color="black" stroke="currentColor" stroke-width="1.00" stroke-linecap="butt" stroke-linejoin="miter">
	<path stroke='black'  d='M229.7,436.0 L229.7,427.0 M229.7,18.1 L229.7,27.1  '/>	<g transform="translate(229.7,457.9)" stroke="none" fill="black" font-family="Arial" font-size="12.00"  text-anchor="middle">
		<text><tspan font-family="Arial" > 30</tspan></text>
	</g>
</g>
<g fill="none" color="black" stroke="currentColor" stroke-width="1.00" stroke-linecap="butt" stroke-linejoin="miter">
	<path stroke='black'  d='M285.6,436.0 L285.6,427.0 M285.6,18.1 L285.6,27.1  '/>	<g transform="translate(285.6,457.9)" stroke="none" fill="black" font-family="Arial" font-size="12.00"  text-anchor="middle">
		<text><tspan font-family="Arial" > 40</tspan></text>
	</g>
</g>
<g fill="none" color="black" stroke="currentColor" stroke-width="1.00" stroke-linecap="butt" stroke-linejoin="miter">
	<path stroke='black'  d='M341.4,436.0 L341.4,427.0 M341.4,18.1 L341.4,27.1  '/>	<g transform="translate(341.4,457.9)" stroke="none" fill="black" font-family="Arial" font-size="12.00"  text-anchor="middle">
		<text><tspan font-family="Arial" > 50</tspan></text>
	</g>
</g>
<g fill="none" color="black" stroke="currentColor" stroke-width="1.00" stroke-linecap="butt" stroke-linejoin="miter">
	<path stroke='black'  d='M397.2,436.0 L397.2,427.0 M397.2,18.1 L397.2,27.1  '/>	<g transform="translate(397.2,457.9)" stroke="none" fill="black" font-family="Arial" font-size="12.00"  text-anchor="middle">
		<text><tspan font-family="Arial" > 60</tspan></text>
	</g>
</g>
<g fill="none" color="black" stroke="currentColor" stroke-width="1.00" stroke-linecap="butt" stroke-linejoin="miter">
	<path stroke='black'  d='M453.1,436.0 L453.1,427.0 M453.1,18.1 L453.1,27.1  '/>	<g transform="translate(453.1,457.9)" stroke="none" fill="black" font-family="Arial" font-size="12.00"  text-anchor="middle">
		<text><tspan font-family="Arial" > 70</tspan></text>
	</g>
</g>
<g fill="none" color="black" stroke="currentColor" stroke-width="1.00" stroke-linecap="butt" stroke-linejoin="miter">
	<path stroke='black'  d='M508.9,436.0 L508.9,427.0 M508.9,18.1 L508.9,27.1  '/>	<g transform="translate(508.9,457.9)" stroke="none" fill="black" font-family="Arial" font-size="12.00"  text-anchor="middle">
		<text><tspan font-family="Arial" > 80</tspan></text>
	</g>
</g>
<g fill="none" color="black" stroke="currentColor" stroke-width="1.00" stroke-linecap="butt" stroke-linejoin="miter">
	<path stroke='black'  d='M564.7,436.0 L564.7,427.0 M564.7,18.1 L564.7,27.1  '/>	<g transform="translate(564.7,457.9)" stroke="none" fill="black" font-family="Arial" font-size="12.00"  text-anchor="middle">
		<text><tspan font-family="Arial" > 90</tspan></text>
	</g>
</g>
<g fill="none" color="black" stroke="currentColor" stroke-width="1.00" stroke-linecap="butt" stroke-linejoin="miter">
</g>
<g fill="none" color="black" stroke="currentColor" stroke-width="1.00" stroke-linecap="butt" stroke-linejoin="miter">
	<path stroke='black'  d='M62.2,18.1 L62.2,436.0 L615.0,436.0 L615.0,18.1 L62.2,18.1 Z  '/></g>
<g fill="none" color="black" stroke="currentColor" stroke-width="1.00" stroke-linecap="butt" stroke-linejoin="miter">
</g>
	<g id="gnuplot_plot_1" ><title>raw</title>
<g fill="none" color="black" stroke="currentColor" stroke-width="1.00" stroke-linecap="butt" stroke-linejoin="miter">
	<g transform="translate(321.6,475.9)" stroke="none" fill="black" font-family="Arial" font-size="12.00"  text-anchor="end">
		<text><tspan font-family="Arial" >raw</tspan></text>
	</g>
</g>
<g fill="none" color="black" stroke="currentColor" stroke-width="1.00" stroke-linecap="butt" stroke-linejoin="miter">
	<path stroke='rgb(148,   0, 211)'  d='M329.9,472.0 L372.1,472.0 M62.2,428.0 L67.8,401.8 L73.4,385.7 L79.0,372.0 L84.5,368.5 L90.1,363.2
		L95.7,351.0 L101.3,338.7 L106.9,335.7 L112.5,332.9 L118.0,330.5 L123.6,329.8 L129.2,328.0 L134.8,327.1
		L140.4,316.5 L146.0,294.9 L151.5,290.1 L157.1,289.6 L162.7,288.5 L168.3,288.4 L173.9,282.2 L179.5,281.8
		L185.0,280.6 L190.6,279.5 L196.2,265.9 L201.8,252.2 L207.4,248.8 L213.0,247.5 L218.5,242.9 L224.1,241.1
		L229.7,240.3 L235.3,240.0 L240.9,238.7 L246.5,237.4 L252.1,236.9 L257.6,236.3 L263.2,232.8 L268.8,230.6
		L274.4,226.8 L280.0,226.3 L285.6,225.6 L291.1,225.6 L296.7,223.5 L302.3,221.3 L307.9,216.6 L313.5,214.5
		L319.1,209.4 L324.6,204.6 L330.2,201.3 L335.8,201.0 L341.4,196.9 L347.0,196.7 L352.6,191.2 L358.1,190.6
		L363.7,188.5 L369.3,184.1 L374.9,184.1 L380.5,182.9 L386.1,180.1 L391.6,176.9 L397.2,174.3 L402.8,171.9
		L408.4,166.6 L414.0,165.1 L419.6,164.4 L425.1,164.4 L430.7,164.3 L436.3,164.3 L441.9,159.4 L447.5,158.5
		L453.1,154.9 L458.7,154.5 L464.2,149.8 L469.8,141.9 L475.4,140.9 L481.0,138.8 L486.6,135.7 L492.2,133.7
		L497.7,133.0 L503.3,131.9 L508.9,130.7 L514.5,129.3 L520.1,129.1 L525.7,123.0 L531.2,121.3 L536.8,121.2
		L542.4,115.7 L548.0,114.8 L553.6,113.5 L559.2,113.0 L564.7,100.9 L570.3,98.0 L575.9,97.8 L581.5,97.4
		L587.1,94.0 L592.7,94.0 L598.2,91.8 L603.8,88.4 L609.4,86.8 L615.0,26.1  '/></g>
	</g>
<g fill="none" color="#FFFFFF" stroke="rgb(148,   0, 211)" stroke-width="2.00" stroke-linecap="butt" stroke-linejoin="miter">
</g>
<g fill="none" color="black" stroke="currentColor" stroke-width="2.00" stroke-linecap="butt" stroke-linejoin="miter">
</g>
<g fill="none" color="black" stroke="black" stroke-width="1.00" stroke-linecap="butt" stroke-linejoin="miter">
</g>
<g fill="none" color="black" stroke="currentColor" stroke-width="1.00" stroke-linecap="butt" stroke-linejoin="miter">
	<path stroke='black'  d='M62.2,18.1 L62.2,436.0 L615.0,436.0 L615.0,18.1 L62.2,18.1 Z  '/></g>
<g fill="none" color="black" stroke="currentColor" stroke-width="1.00" stroke-linecap="butt" stroke-linejoin="miter">
</g>
</g>
</svg>
